TrafficJam2023/images/icons/rocket.svg

<svg width="41" height="41" viewBox="0 0 41 41" fill="none" xmlns="http://www.w3.org/2000/svg">
<path d="M16.0043 8.52467C12.0309 12.984 9.30405 19.3906 9.05085 19.9943L2 16.976L11.3687 7.60944L16.0043 8.52467ZM19.8608 29.2635C19.8608 29.2635 27.1454 26.2452 31.3331 22.0584C41.8509 11.543 40.0979 3.32537 39.5331 1.47543C37.6827 0.891234 29.4632 -0.841868 18.9454 9.67358C14.7577 13.8603 11.7387 21.1432 11.7387 21.1432L19.8608 29.2635ZM32.4822 24.9989C28.0219 28.9714 21.6138 31.6976 21.01 31.9508L24.029 39L33.3977 29.6335L32.4822 24.9989ZM15.6342 31.2108C15.6342 32.827 14.972 34.2875 13.9202 35.3391C11.6219 37.6369 2 39 2 39C2 39 3.36342 29.3803 5.66177 27.0825C6.47747 26.2627 7.51845 25.7038 8.65253 25.4766C9.7866 25.2495 10.9626 25.3644 12.0312 25.8068C13.0999 26.2491 14.0129 26.999 14.6544 27.9612C15.2959 28.9234 15.6369 30.0544 15.6342 31.2108ZM23.4252 13.685C23.4252 11.543 25.1782 9.79042 27.3207 9.79042C29.4632 9.79042 31.2162 11.543 31.2162 13.685C31.2162 15.8271 29.4632 17.5796 27.3207 17.5796C25.1782 17.5796 23.4252 15.8271 23.4252 13.685Z" stroke="#FCFDFD" stroke-width="2"/>
</svg>

<svg xmlns="http://www.w3.org/2000/svg" width="41" height="41" fill="none" viewBox="0 0 41 41"><path stroke="#FCFDFD" stroke-width="2" d="M16.004 8.525c-3.973 4.459-6.7 10.866-6.953 11.47L2 16.975l9.369-9.367 4.635.916Zm3.857 20.739s7.284-3.019 11.472-7.206c10.518-10.515 8.765-18.733 8.2-20.583-1.85-.584-10.07-2.317-20.588 8.199-4.187 4.186-7.206 11.47-7.206 11.47l8.122 8.12Zm12.621-4.265c-4.46 3.972-10.868 6.699-11.472 6.952L24.029 39l9.369-9.366-.916-4.635ZM15.634 31.21a5.827 5.827 0 0 1-1.714 4.128C11.622 37.637 2 39 2 39s1.363-9.62 3.662-11.918a5.836 5.836 0 0 1 9.972 4.129Zm7.791-17.526a3.907 3.907 0 0 1 3.896-3.895 3.907 3.907 0 0 1 3.895 3.895 3.906 3.906 0 0 1-3.895 3.895 3.906 3.906 0 0 1-3.896-3.895Z"/></svg>
